X:127
T:Eighteenth of April, The
M:6/8
L:1/8
B:Thompson's Compleat Collection of 200 Favourite Country Dances, vol. 3 (London, 1773)
Z:Transcribed and edited by Flynn Titford-Mock, 2007
Z:abc's:AK/Fiddler's Companion
K:A
A2A c2e | agf edc | def edc | BcA GFE | A2A c2e | agf edc | def edc | BAG A3 :|
|: agf edc | fed cBA | Bcd cBA | GAB BGE | agf edc | fed cBA | d2f edc | BAG A2 :|

